icons/arrow-large-down.svg

<svg xmlns="http://www.w3.org/2000/svg" width="24" height="24" viewBox="0 0 24 24">
  <path d="M12,1 C12.5128358,1 12.9355072,1.38604019 12.9932723,1.88337887 L13,2 L12.9997186,19.585 L19.7781746,12.8076118 C20.1686989,12.4170876 20.8018639,12.4170876 21.1923882,12.8076118 C21.5528721,13.1680958 21.5806017,13.7353269 21.2755768,14.1276181 L21.1923882,14.2218254 L12.7071068,22.7071068 C12.6800928,22.7341207 12.6515405,22.7595963 12.6215925,22.7833908 L12.7071068,22.7071068 C12.667642,22.7465715 12.6256994,22.7820481 12.5817796,22.8135366 C12.5671275,22.8239501 12.551756,22.8343431 12.5360882,22.844312 L12.5236789,22.8521831 L12.5236789,22.8521831 L12.5114029,22.8596192 C12.503575,22.864284 12.495697,22.8688325 12.4877715,22.8732648 C12.4667113,22.8849663 12.4452036,22.8960049 12.4232619,22.9062701 C12.4045951,22.9150274 12.3855721,22.9231947 12.3663626,22.9307447 C12.3569644,22.9344661 12.3471476,22.9381594 12.3372588,22.9417014 L12.3192208,22.9479137 C12.2990754,22.9546807 12.2787573,22.9607883 12.2583,22.9662366 C12.2490051,22.9688043 12.2391762,22.9712701 12.2292908,22.9735893 L12.2005167,22.9798025 C12.1815802,22.9836596 12.1625536,22.9869643 12.1434626,22.9897165 C12.1247278,22.9924869 12.1053495,22.9947092 12.085811,22.9963697 C12.0678504,22.9978612 12.0504453,22.9988858 12.0330282,22.9994578 C12.0224019,22.9998151 12.0112225,23 12,23 L11.9669718,22.9994578 C11.9496288,22.9988882 11.9322977,22.9978699 11.9149976,22.9964029 L11.8833789,22.9932723 L11.8833789,22.9932723 L11.8562574,22.9896761 C11.8365112,22.9868237 11.8168338,22.9833803 11.797254,22.9793458 C11.7765319,22.9751672 11.7560665,22.9702646 11.7358562,22.9647439 C11.7188351,22.9600203 11.7017685,22.954874 11.6848222,22.9492622 C11.6672299,22.9434743 11.6501498,22.9372717 11.6332937,22.9306242 C11.6141449,22.9230835 11.5948444,22.9147866 11.5757679,22.9058541 C11.5572989,22.8971507 11.5391439,22.8879406 11.5213178,22.8782035 C11.5064512,22.8701866 11.4912297,22.8613648 11.4762,22.8521085 C11.4716768,22.8492152 11.4677852,22.8467766 11.4639118,22.844312 L11.425501,22.8187072 C11.4125282,22.8095812 11.3997238,22.8001105 11.3871006,22.7902954 C11.3502553,22.7611958 11.320756,22.7349696 11.2928932,22.7071068 L2.80761184,14.2218254 C2.41708755,13.8313011 2.41708755,13.1981361 2.80761184,12.8076118 C3.16809581,12.4471279 3.73532686,12.4193983 4.12761807,12.7244232 L4.22182541,12.8076118 L10.9997186,19.585 L11,2 C11,1.44771525 11.4477153,1 12,1 Z"/>
</svg>

<svg xmlns="http://www.w3.org/2000/svg" viewBox="0 0 24 24">
  <path d="M12 1a1 1 0 0 1 1 .88V19.6l6.78-6.78a1 1 0 0 1 1.5 1.32l-.09.1-8.48 8.48a1 1 0 0 1-.09.07l.09-.07a1 1 0 0 1-.17.13l-.02.01v.01a1 1 0 0 1-.18.08h-.02a1 1 0 0 1-.1.03l-.02.01a1 1 0 0 1-.2.02h-.03a1 1 0 0 1-.06 0h-.03l-.02-.01a1 1 0 0 1-.38-.14h-.02l-.03-.03a1 1 0 0 1-.14-.11l-8.48-8.49a1 1 0 0 1 1.32-1.5l.1.09L11 19.59V2a1 1 0 0 1 1-1z"/>
</svg>
